X: 15117
T: Ghost's Welcome, The
R: reel
M: 4/4
K: Dmixolydian
"D" d3B ABAG|"C" EFGE AF (3GFE|"D" D2DE FEFG|"Am" A2cB AGFG|
"D" AddB A2AG|"C" EFGE AF (3GFE|"D" DEFG A2dB|1 "Am" (3ABA GE "D" F2D2:|2 "Am" (3ABA GE "D" FDDD||
"D" Ad (3ddd "Am" AGFG|"D" AddB "C" A2AG|"D" Ad (3ddd "Am" AG (3EFG|"C" ABcA (3GAG FG|
"D" Ad (3ddd "Am" AGFG|"D" AddB "C" A2AB|"D" c2AB cBAG|1 FGAB "Am" cBAG:|2 FGAB "Am" cA(3AAA||

